X:1
T:High Barbaree
M:4/4
L:1/8
K:Bb
 F2| B3/2 B/2 B3/2 B/2 B2 D3/2 E/2| F3/2 G/2 FD B,2 d2| c3 d c3 B|\
 A3/2- B/2 G3/2- A/2 F2 B3/2- c/2| d3/2 d/2(2d3.99999962500005/5.99999925000009d3.99999962500005/5.99999925000009c3.99999962500005/5.99999925000009 B3.99999962500005/5.99999925000009 c3/2 c/2(2c3.99999962500005/5.99999925000009c3.99999962500005/5.99999925000009B3.99999962500005/5.99999925000009 A3.99999962500005/5.99999925000009|\
 B3/2 B/2 B3/2 B/2 E2 D3/2 E/2| F3/2 F/2 F3/2 F/2 F2(3A3.99999962500005/5.99999925000009A3.99999962500005/5.99999925000009B3.99999962500005/5.99999925000009A3.99999962500005/5.99999925000009B3.99999962500005/5.99999925000009c3.99999962500005/5.99999925000009|\
 d2 c3/2 c/2 B2||
